X: 1
T: Hill 60
M: 4/4
L: 1/8
R: reel
K: Dmix
|:fd ~d2 Adfd|ec ~c2 Gcec|~d2 fd Adfd|ecdB cAGc|
dafa gefd|~c2 Gc gceg|af(3gfe fd^cd|eaag fd d2:|
|:~d2 ef gefd|eage d^cAG|Adef ~g2 fg|eaag fd d2|
~f2 dA FAEA|~D2 fd gefg|af(3gfe fd^cd| eaag fd d2:|
